Unicodia/Resources/Scripts/3400.svg

<?xml version="1.0" encoding="UTF-8" standalone="no"?>
<!-- Created with Inkscape (http://www.inkscape.org/) -->

<svg
   width="16"
   height="16"
   viewBox="0 0 16 16"
   version="1.1"
   id="svg5"
   inkscape:version="1.2.2 (732a01da63, 2022-12-09)"
   sodipodi:docname="3400.svg"
   inkscape:export-filename="..\0000.png"
   inkscape:export-xdpi="96"
   inkscape:export-ydpi="96"
   xml:space="preserve"
   xmlns:inkscape="http://www.inkscape.org/namespaces/inkscape"
   xmlns:sodipodi="http://sodipodi.sourceforge.net/DTD/sodipodi-0.dtd"
   xmlns="http://www.w3.org/2000/svg"
   xmlns:svg="http://www.w3.org/2000/svg"><sodipodi:namedview
     id="namedview7"
     pagecolor="#ffffff"
     bordercolor="#666666"
     borderopacity="1.0"
     inkscape:pageshadow="2"
     inkscape:pageopacity="0"
     inkscape:pagecheckerboard="0"
     inkscape:document-units="px"
     showgrid="true"
     width="16mm"
     units="px"
     inkscape:zoom="47.125"
     inkscape:cx="3.2997348"
     inkscape:cy="8.3395226"
     inkscape:window-width="1680"
     inkscape:window-height="998"
     inkscape:window-x="-8"
     inkscape:window-y="-8"
     inkscape:window-maximized="1"
     inkscape:current-layer="layer1"
     showguides="true"
     inkscape:guide-bbox="true"
     inkscape:snap-bbox="true"
     inkscape:bbox-paths="true"
     inkscape:bbox-nodes="true"
     inkscape:snap-global="true"
     inkscape:showpageshadow="2"
     inkscape:deskcolor="#ffffff"><inkscape:grid
       type="xygrid"
       id="grid828"
       originx="0"
       originy="0" /></sodipodi:namedview><defs
     id="defs2" /><g
     inkscape:label="Layer 1"
     inkscape:groupmode="layer"
     id="layer1"><rect
       style="fill:#fff0f5"
       id="rect691"
       width="16"
       height="16"
       x="0"
       y="0" /><path
       d="m 13.627241,2.9437911 c 0.193425,0 0.342214,-0.074394 0.386851,-0.2380624 C 13.49333,2.2147251 12.630354,1.5600535 12.630354,1.5600535 L 11.901288,2.4974241 H 6.4853688 L 6.6044,2.9437911 Z M 4.238655,1.3517489 C 3.5244678,4.2084976 2.2746402,7.109883 1.0545705,8.9251088 l 0.2083046,0.148789 C 1.8877888,8.448984 2.453187,7.6752812 3.0037063,6.8420628 v 8.1090002 h 0.1785468 c 0.3719725,0 0.7737028,-0.238062 0.7885817,-0.327336 V 5.8005399 C 4.238655,5.7559032 4.3725651,5.6666298 4.4320807,5.5327197 L 3.8666825,5.3095362 C 4.4023229,4.3275288 4.8486899,3.256248 5.2355412,2.1254517 c 0.3422147,0 0.5058826,-0.1190312 0.5802771,-0.297578 z m 10.251562,9.3653491 h -0.193426 c -0.163668,0.877855 -0.327336,1.88962 -0.431488,2.112804 -0.04464,0.148789 -0.104152,0.178546 -0.223183,0.193425 h -0.773703 -0.773703 c -0.371972,0 -0.416609,-0.07439 -0.416609,-0.282699 V 6.9015784 6.8718204 h 2.574049 c 0.223184,0 0.371973,-0.074395 0.401731,-0.2380624 C 14.148002,6.1576334 13.329663,5.5327197 13.329663,5.5327197 L 12.600597,6.4254536 H 5.1313889 l 0.1190312,0.446367 H 7.917922 C 7.843528,10.353483 7.1102826,12.778744 4.4469596,14.817153 l 0.1339101,0.193426 C 7.8691065,13.23999 8.7957771,10.695698 8.9892027,6.8718206 h 1.7366523 v 6.1068704 c 0,0.699308 0.193426,0.952249 1.130797,0.952249 h 0.996886 c 1.651558,0 2.068167,-0.178547 2.068167,-0.595156 0,-0.193426 -0.07439,-0.312457 -0.386851,-0.431488 z"
       style="font-weight:bold;font-size:medium;line-height:1.25;font-family:'Noto Serif CJK SC';-inkscape-font-specification:'Noto Serif CJK SC Bold';text-align:center;letter-spacing:0px;word-spacing:0px;text-anchor:middle;fill:#5c3566"
       id="path208005"
       sodipodi:nodetypes="scccccscccccsccccccccccccssccsccccccccccsssscc" /></g></svg>

<svg height="16" viewBox="0 0 16 16" width="16" xmlns="http://www.w3.org/2000/svg"><path d="m0 0h16v16h-16z" fill="#fff0f5"/><path d="m13.63 2.94c.19 0 .34-.07.39-.24-.53-.49-1.39-1.14-1.39-1.14l-.73.94h-5.41l.11.44zm-9.39-1.59c-.72 2.86-1.97 5.76-3.19 7.58l.21.15c.63-.63 1.19-1.4 1.74-2.24v8.11h.18c.37 0 .77-.24.79-.33v-8.82c.27-.04.4-.13.46-.27l-.56-.22c.53-.98.98-2.05 1.37-3.18.34 0 .51-.12.58-.3zm10.25 9.37h-.19c-.16.88-.33 1.89-.43 2.11-.04.15-.1.18-.22.19h-.77-.77c-.37 0-.42-.07-.42-.28v-5.84-.03h2.57c.22 0 .37-.07.4-.24-.51-.47-1.33-1.1-1.33-1.1l-.73.9h-7.47l.12.45h2.67c-.08 3.47-.81 5.9-3.47 7.94l.13.19c3.29-1.77 4.22-4.31 4.41-8.14h1.74v6.11c0 .7.19.95 1.13.95h1c1.65 0 2.07-.18 2.07-.6 0-.19-.07-.31-.39-.43z" fill="#5c3566"/></svg>
